X:1252
T:Svingedans
T:(SvL Skåne 1252)
T:efter Jöns Andersson Ryberg
R:Svingedans
O:Ry, Lövestad, Skåne
B:Svenska Låtar Skåne
M:3/4
L:1/8
K:F
|: (3A^cd A2 (ef) | (3(fe)d d^c ec | (3ddd ^FG A=c | =(3BGB (A2 LA2) :|
[K:Em]|: (3AcB GG GB | (B{cB})A [FD][FD] [FD][FD] | (3AcB GG G[BG] | (B{cB})A ([A2F2] L[A2F2]) | (3efe df af | (3e^ce (d2 Ld2) :|

